X: 10901
M: 6/8
L: 1/8
K: F
(c/f/) | a2a gfg | f3 c3 | def fed | dcB ABc |\
a2a gfg | f3 c2A | Bdc BAG | FFF F2 H|]
(e/f/) | gec cea | afd cAc | BGB dcB | B3 Acf |\
gfc cfa | afd c2c | Bfe fdc | (d3 "^D.C."c2) |]
cBA G2A | F2A GFG | cBA G2A | F2A G2c |\
fef gfg | aga faf | gfg ege | (g3 "^D.C."f2) |]


